**kern	**silbe	**kern	**silbe	**harmony	**phrase	**leadinstrument	**rhyme	**timestamp	**harte
*ICvox	*	*ICvox	*	*M4/4	*	*	*	*	*M4/4
*VRlead	*	*VRharmonize	*	*	*	*	*	*	*
*Hstimme	*	*Nstimme	*	*	*	*	*	*	*
*b:	*	*b:	*	*b:	*	*	*	*	*b:
*M4/4	*	*M4/4	*	*	*	*	*	*	*
*clefG2	*	*clefG2	*	*	*	*	*	*	*
r;	.	r;	.	1r;	.	r	.	0	N.C.
=1	=1	=1	=1	=1	=1	=1	=1	=1	=1
*>Letter>D	*>Letter>D	*>Letter>D	*>Letter>D	*>Letter>D	*>Letter>D	*>Letter>D	*>Letter>D	*>Letter>D	*>Letter>D
*>Label>Intro	*>Label>Intro	*>Label>Intro	*>Label>Intro	*>Label>Intro	*>Label>Intro	*>Label>Intro	*>Label>Intro	*>Label>Intro	*>Label>Intro
1r	.	1r	.	1Bmm	newline	guitar	.	0.045	B:min7/5
=2	=2	=2	=2	=2	=2	=2	=2	=2	=2
1r	.	1r	.	1Bmm	.	guitar	.	2.02	B:min11/5
=3	=3	=3	=3	=3	=3	=3	=3	=3	=3
1r	.	1r	.	1C#mm	.	guitar	.	3.995	C#:min7/4
=4	=4	=4	=4	=4	=4	=4	=4	=4	=4
1r	.	1r	.	1F#Mm	.	guitar	.	5.97	F#:7
=5	=5	=5	=5	=5	=5	=5	=5	=5	=5
1r	.	1r	.	1F#mm	newline	guitar	.	7.946	F#:min7
=6	=6	=6	=6	=6	=6	=6	=6	=6	=6
1r	.	1r	.	1C#dm	.	guitar	.	9.836	C#:hdim7/4
=7	=7	=7	=7	=7	=7	=7	=7	=7	=7
1r	.	1r	.	1Em	.	guitar	.	11.726	E:min/b3
=8	=8	=8	=8	=8	=8	=8	=8	=8	=8
1r	.	1r	.	1F#Mm	.	guitar	.	13.617	F#:7
=9	=9	=9	=9	=9	=9	=9	=9	=9	=9
1r	.	1r	.	1F#Mm	.	guitar	.	15.507	F#:7
=10	=10	=10	=10	=10	=10	=10	=10	=10	=10
*>Letter>A	*>Letter>A	*>Letter>A	*>Letter>A	*>Letter>A	*>Letter>A	*>Letter>A	*>Letter>A	*>Letter>A	*>Letter>A
*>Label>Preverse	*>Label>Preverse	*>Label>Preverse	*>Label>Preverse	*>Label>Preverse	*>Label>Preverse	*>Label>Preverse	*>Label>Preverse	*>Label>Preverse	*>Label>Preverse
1r	.	1r	.	1Bm	newline	guitar	.	17.398	B:sus4
=11	=11	=11	=11	=11	=11	=11	=11	=11	=11
1r	.	1r	.	1BM	.	guitar	.	19.27	B:maj
=12	=12	=12	=12	=12	=12	=12	=12	=12	=12
1r	.	1r	.	1Bm	.	guitar	.	21.143	B:sus4
=13	=13	=13	=13	=13	=13	=13	=13	=13	=13
1r	.	1r	.	1BM	.	guitar	.	23.015	B:maj
=14	=14	=14	=14	=14	=14	=14	=14	=14	=14
1r	.	1r	.	1Bm	newline	guitar	.	24.888	B:sus4
=15	=15	=15	=15	=15	=15	=15	=15	=15	=15
1r	.	1r	.	1BM	.	guitar	.	26.781	B:maj
=16	=16	=16	=16	=16	=16	=16	=16	=16	=16
1r	.	1r	.	1Bm	.	guitar	.	28.675	B:sus4
=17	=17	=17	=17	=17	=17	=17	=17	=17	=17
2..r	.	1r	.	1BM	.	guitar	.	30.568	B:maj
16B	Ev-	.	.	.	.	.	.	.	.
16B	-er	.	.	.	.	.	.	.	.
=18	=18	=18	=18	=18	=18	=18	=18	=18	=18
*>Letter>B	*>Letter>B	*>Letter>B	*>Letter>B	*>Letter>B	*>Letter>B	*>Letter>B	*>Letter>B	*>Letter>B	*>Letter>B
*>Label>Verse	*>Label>Verse	*>Label>Verse	*>Label>Verse	*>Label>Verse	*>Label>Verse	*>Label>Verse	*>Label>Verse	*>Label>Verse	*>Label>Verse
8f#	since	1r	.	1Bm	newline	voice	.	32.461	B:sus4
8f#	I	.	.	.	.	.	.	.	.
8f#	was	.	.	.	.	.	.	.	.
16f#	a	.	.	.	.	.	.	.	.
8.f#	young	.	.	.	.	.	.	.	.
8f#	boy	.	.	.	.	.	.	.	.
8r	.	.	.	.	.	.	.	.	.
8f#	I've	.	.	.	.	.	.	.	.
=19	=19	=19	=19	=19	=19	=19	=19	=19	=19
8f#	played	1r	.	1BM	.	voice	.	34.345	B:maj
8e	the	.	.	.	.	.	.	.	.
8d#	sil-	.	.	.	.	.	.	.	.
16c#	-ver	.	.	.	.	.	.	.	.
[16B	ball	.	.	.	.	.	A	.	.
4B]	_	.	.	.	.	.	.	.	.
8r	.	.	.	.	.	.	.	.	.
8e	From	.	.	.	.	.	.	.	.
=20	=20	=20	=20	=20	=20	=20	=20	=20	=20
8e	So-	1r	.	1AM	.	voice	.	36.229	A:sus4
8e	-ho	.	.	.	.	.	.	.	.
8e	down	.	.	.	.	.	.	.	.
16e	to	.	.	.	.	.	.	.	.
8e	Brigh-	.	.	.	.	.	(B	.	.
8.e	-ton	.	.	.	.	.	b)	.	.
8r	.	.	.	.	.	.	.	.	.
8e	I	.	.	.	.	.	.	.	.
=21	=21	=21	=21	=21	=21	=21	=21	=21	=21
8e	must	1r	.	1AM	.	voice	.	38.112	A:maj
8d	have	.	.	.	.	.	.	.	.
8c#	played	.	.	.	.	.	.	.	.
16d	them	.	.	.	.	.	.	.	.
16e	all	.	.	.	.	.	A	.	.
16d	_	.	.	.	.	.	.	.	.
8.e	_	.	.	.	.	.	.	.	.
16r	.	.	.	.	.	.	.	.	.
16d	But	.	.	.	.	.	.	.	.
8d	I	.	.	.	.	.	.	.	.
=22	=22	=22	=22	=22	=22	=22	=22	=22	=22
8d	ain't	1r	.	1GM	newline	voice	.	39.996	G:sus4
8d	seen	.	.	.	.	.	.	.	.
16d	noth-	.	.	.	.	.	.	.	.
8d	-ing	.	.	.	.	.	.	.	.
8.d	like	.	.	.	.	.	(B	.	.
8d	him	.	.	.	.	.	b)	.	.
8r	.	.	.	.	.	.	.	.	.
8d	in	.	.	.	.	.	.	.	.
=23	=23	=23	=23	=23	=23	=23	=23	=23	=23
16d	an-	1r	.	1GM	.	voice	.	41.962	G:maj
16d	-y	.	.	.	.	.	.	.	.
16c	a-	.	.	.	.	.	.	.	.
8.B	-muse-	.	.	.	.	.	.	.	.
8c	-ment	.	.	.	.	.	.	.	.
16d	hall	.	.	.	.	.	A	.	.
16c	_	.	.	.	.	.	.	.	.
8d	_	.	.	.	.	.	.	.	.
8r	.	.	.	.	.	.	.	.	.
8d	That	.	.	.	.	.	.	.	.
=24	=24	=24	=24	=24	=24	=24	=24	=24	=24
8.c#	deaf	1r	.	1F#m	.	voice	.	43.928	F#:sus4
[16c#	dumb	.	.	.	.	.	.	.	.
16c#]	_	.	.	.	.	.	.	.	.
16B	and	.	.	.	.	.	.	.	.
8c#	blind	.	.	.	.	.	(B	.	.
8A	_	.	.	.	.	.	.	.	.
8A#	kid	.	.	.	.	.	b)	.	.
4r	.	.	.	.	.	.	.	.	.
=25	=25	=25	=25	=25	=25	=25	=25	=25	=25
4d	Sure	4b	Sure	1F#m	.	voice	.	45.895	F#:sus4
8.B	plays	8.a	plays	.	.	.	.	.	.
16B	a	16a	a	.	.	.	.	.	.
4A	mean	4f#	mean	.	.	.	.	.	.
4E	pin-	4A	pin-	.	.	.	.	.	.
=26	=26	=26	=26	=26	=26	=26	=26	=26	=26
2F#	-ball	2B	-ball	2BM	newline	guitar	A	47.861	B:maj
2r	.	2r	.	4AM	.	guitar	.	48.828	A:maj
.	.	.	.	4DM	.	guitar	.	49.312	D:maj
=27	=27	=27	=27	=27	=27	=27	=27	=27	=27
1r	.	1r	.	1EM	.	guitar	.	49.796	E:maj
=28	=28	=28	=28	=28	=28	=28	=28	=28	=28
1r	.	1r	.	2BM	.	guitar	.	51.731	B:maj
.	.	.	.	4AM	.	guitar	.	52.698	A:maj
.	.	.	.	4DM	.	guitar	.	53.182	D:maj
=29	=29	=29	=29	=29	=29	=29	=29	=29	=29
2..r	.	1r	.	1EM	.	guitar	.	53.666	E:maj
8B	He	.	.	.	.	.	.	.	.
=30	=30	=30	=30	=30	=30	=30	=30	=30	=30
*>Letter>B	*>Letter>B	*>Letter>B	*>Letter>B	*>Letter>B	*>Letter>B	*>Letter>B	*>Letter>B	*>Letter>B	*>Letter>B
*>Label>Verse	*>Label>Verse	*>Label>Verse	*>Label>Verse	*>Label>Verse	*>Label>Verse	*>Label>Verse	*>Label>Verse	*>Label>Verse	*>Label>Verse
4f#	stands	1r	.	1Bm	newline	voice	.	55.601	B:sus4
8f#	like	.	.	.	.	.	B	.	.
16f#	a	.	.	.	.	.	.	.	.
8f#	sta-	.	.	.	.	.	.	.	.
8.f#	-tue	.	.	.	.	.	.	.	.
16r	.	.	.	.	.	.	.	.	.
16f#	Be-	.	.	.	.	.	.	.	.
8f#	-comes	.	.	.	.	.	.	.	.
=31	=31	=31	=31	=31	=31	=31	=31	=31	=31
8f#	part	1r	.	1BM	.	voice	.	57.518	B:maj
8e	of	.	.	.	.	.	.	.	.
16d#	the	.	.	.	.	.	.	.	.
8c#	ma-	.	.	.	.	.	.	.	.
[16B	-chine	.	.	.	.	.	C	.	.
4B]	_	.	.	.	.	.	.	.	.
4r	.	.	.	.	.	.	.	.	.
=32	=32	=32	=32	=32	=32	=32	=32	=32	=32
16e	Feel-	1r	.	1AM	.	voice	.	59.434	A:sus4
8e	-ing	.	.	.	.	.	.	.	.
8.e	all	.	.	.	.	.	.	.	.
16e	the	.	.	.	.	.	.	.	.
[16e	bum-	.	.	.	.	.	(D	.	.
8e]	_	.	.	.	.	.	.	.	.
8e	-pers	.	.	.	.	.	d)	.	.
4r	.	.	.	.	.	.	.	.	.
=33	=33	=33	=33	=33	=33	=33	=33	=33	=33
8e	Al-	1r	.	1AM	.	voice	.	61.351	A:maj
8d	-ways	.	.	.	.	.	.	.	.
16c#	plays	.	.	.	.	.	.	.	.
8d	it	.	.	.	.	.	.	.	.
16e	clean	.	.	.	.	.	C	.	.
16d	_	.	.	.	.	.	.	.	.
8.e	_	.	.	.	.	.	.	.	.
4r	.	.	.	.	.	.	.	.	.
=34	=34	=34	=34	=34	=34	=34	=34	=34	=34
8d	Plays	1r	.	1GM	newline	voice	.	63.268	G:sus4
8d	by	.	.	.	.	.	.	.	.
8d	in-	.	.	.	.	.	.	.	.
16d	-tu-	.	.	.	.	.	.	.	.
[16d	-it-	.	.	.	.	.	.	.	.
16d]	_	.	.	.	.	.	.	.	.
8.d	-ion	.	.	.	.	.	.	.	.
8r	.	.	.	.	.	.	.	.	.
8d	The	.	.	.	.	.	.	.	.
=35	=35	=35	=35	=35	=35	=35	=35	=35	=35
8d	di-	1r	.	1GM	.	voice	.	65.225	G:maj
8c	-git	.	.	.	.	.	.	.	.
8B	coun-	.	.	.	.	.	(.	.	.
8c	-ters	.	.	.	.	.	d)	.	.
16d	fall	.	.	.	.	.	A	.	.
16c	_	.	.	.	.	.	.	.	.
8d	_	.	.	.	.	.	.	.	.
8r	.	.	.	.	.	.	.	.	.
8d	The	.	.	.	.	.	.	.	.
=36	=36	=36	=36	=36	=36	=36	=36	=36	=36
8.c#	deaf	1r	.	1F#m	.	voice	.	67.181	F#:sus4
8c#	dumb	.	.	.	.	.	D	.	.
16B	and	.	.	.	.	.	.	.	.
8c#	blind	.	.	.	.	.	(B	.	.
8A	_	.	.	.	.	.	.	.	.
8A#	kid	.	.	.	.	.	b)	.	.
4r	.	.	.	.	.	.	.	.	.
=37	=37	=37	=37	=37	=37	=37	=37	=37	=37
4d	Sure	4b	Sure	1F#m	.	voice	.	69.137	F#:sus4
8.B	plays	8.a	plays	.	.	.	.	.	.
16B	a	16a	a	.	.	.	.	.	.
4A	mean	4f#	mean	.	.	.	.	.	.
4E	pin-	4A	pin-	.	.	.	.	.	.
=38	=38	=38	=38	=38	=38	=38	=38	=38	=38
2F#	-ball	2B	-ball	2BM	newline	guitar	A	71.094	B:maj
2r	.	2r	.	4AM	.	guitar	.	72.08	A:maj
.	.	.	.	4DM	.	guitar	.	72.574	D:maj
=39	=39	=39	=39	=39	=39	=39	=39	=39	=39
1r	.	1r	.	1EM	.	guitar	.	73.067	E:maj
=40	=40	=40	=40	=40	=40	=40	=40	=40	=40
1r	.	1r	.	2BM	.	guitar	.	75.04	B:maj
.	.	.	.	4AM	.	guitar	.	76.027	A:maj
.	.	.	.	4DM	.	guitar	.	76.52	D:maj
=41	=41	=41	=41	=41	=41	=41	=41	=41	=41
1r	.	2r	.	1EM	.	guitar	.	77.014	E:maj
.	.	4r	.	.	.	.	.	.	.
.	.	8e 8g#	He's	.	.	.	.	.	.
.	.	8e 8g#	a	.	.	.	.	.	.
=42	=42	=42	=42	=42	=42	=42	=42	=42	=42
*>Letter>C	*>Letter>C	*>Letter>C	*>Letter>C	*>Letter>C	*>Letter>C	*>Letter>C	*>Letter>C	*>Letter>C	*>Letter>C
*>Label>Chorus	*>Label>Chorus	*>Label>Chorus	*>Label>Chorus	*>Label>Chorus	*>Label>Chorus	*>Label>Chorus	*>Label>Chorus	*>Label>Chorus	*>Label>Chorus
4B	pin-	4e 4g#	pin-	4EM	newline	voice	.	78.987	E:maj
4c#	-ball	4e 4g#	-ball	4F#M	.	voice	.	79.479	F#:maj
8d#	wiz-	8d# 8f#	wiz-	2BM	.	voice	.	79.971	B:maj
8d#	-ard	8d# 8f#	-ard	.	.	.	.	.	.
8G#	there	8r	.	.	.	.	.	.	.
[8B	has	[8e [8g#	has	.	.	.	.	.	.
=43	=43	=43	=43	=43	=43	=43	=43	=43	=43
8B]	_	8e] 8g#]	_	4EM	.	voice	.	80.954	E:maj
8B	to	8e 8g#	to	.	.	.	.	.	.
8c#	be	8e 8g#	be	4F#M	.	voice	.	81.446	F#:maj
8c#	a	8e 8g#	a	.	.	.	.	.	.
8d#	twist	8d# 8f#	twist	2BM	.	voice	E	81.938	B:maj
8r	.	8r	.	.	.	.	.	.	.
8r	.	4r	.	.	.	.	.	.	.
8G#	A	.	.	.	.	.	.	.	.
=44	=44	=44	=44	=44	=44	=44	=44	=44	=44
4B	pin-	4e 4g#	pin-	4EM	.	voice	.	82.921	E:maj
4c#	-ball	4e 4g#	-ball	4F#M	.	voice	.	83.413	F#:maj
8d#	wiz-	8d# 8f#	wiz-	2BM	.	voice	.	83.905	B:maj
8d#	-ard's	8d# 8f#	-ard's	.	.	.	.	.	.
4B	got	4f#	got	.	.	.	.	.	.
=45	=45	=45	=45	=45	=45	=45	=45	=45	=45
*D:	*	*D:	*	*D:	*	*	*	*	*D:
4B	such	4d 4g	such	1GM	.	voice	.	84.888	G:maj
4B	a	4d 4g	a	.	.	.	.	.	.
4B	su-	4d 4g	su-	.	.	.	.	.	.
4B	-btle	4d 4g	-btle	.	.	.	.	.	.
=46	=46	=46	=46	=46	=46	=46	=46	=46	=46
8.A	wrist	8.d 8.f#	wrist	1DM	.	voice	E	86.856	D:maj
16G	_	16B 16e	_	.	.	.	.	.	.
4F#	_	4A 4d	_	.	.	.	.	.	.
2r	.	2r	.	.	.	.	.	.	.
=47	=47	=47	=47	=47	=47	=47	=47	=47	=47
1r	.	1r	.	1DM	.	voice	.	88.823	D:maj
=48	=48	=48	=48	=48	=48	=48	=48	=48	=48
*>Letter>A	*>Letter>A	*>Letter>A	*>Letter>A	*>Letter>A	*>Letter>A	*>Letter>A	*>Letter>A	*>Letter>A	*>Letter>A
*>Label>Preverse	*>Label>Preverse	*>Label>Preverse	*>Label>Preverse	*>Label>Preverse	*>Label>Preverse	*>Label>Preverse	*>Label>Preverse	*>Label>Preverse	*>Label>Preverse
8cc	How	1r	.	1DM	newline	guitar	.	90.79	D:sus4(b7)
8b	do	.	.	.	.	.	.	.	.
8a	you	.	.	.	.	.	.	.	.
4g	think	.	.	.	.	.	.	.	.
4a	he	.	.	.	.	.	.	.	.
8f	does	.	.	.	.	.	.	.	.
=49	=49	=49	=49	=49	=49	=49	=49	=49	=49
8e	_	8r	.	1DMm	.	guitar	.	92.745	D:7
4d	it?	4a	I	.	.	.	.	.	.
8r	.	4g	don't	.	.	.	.	.	.
2r	.	.	.	.	.	.	.	.	.
.	.	[4.d	know	.	.	.	.	.	.
=50	=50	=50	=50	=50	=50	=50	=50	=50	=50
8g	What	4d]	_	1DM	.	guitar	.	94.7	D:sus4(b7)
4g	makes	.	.	.	.	.	.	.	.
.	.	2.r	.	.	.	.	.	.	.
4f	him	.	.	.	.	.	.	.	.
4.d	so	.	.	.	.	.	.	.	.
=51	=51	=51	=51	=51	=51	=51	=51	=51	=51
8B	good?	1r	.	1DMm	.	guitar	.	96.655	D:7
4.A	_	.	.	.	.	.	.	.	.
2r	.	.	.	.	.	.	.	.	.
=52	=52	=52	=52	=52	=52	=52	=52	=52	=52
*>Letter>B	*>Letter>B	*>Letter>B	*>Letter>B	*>Letter>B	*>Letter>B	*>Letter>B	*>Letter>B	*>Letter>B	*>Letter>B
*>Label>Verse	*>Label>Verse	*>Label>Verse	*>Label>Verse	*>Label>Verse	*>Label>Verse	*>Label>Verse	*>Label>Verse	*>Label>Verse	*>Label>Verse
*b:	*	*b:	*	*b:	*	*	*	*	*b:
8f#	Ain't	1r	.	1Bm	newline	voice	.	98.611	B:sus4
8f#	got	.	.	.	.	.	.	.	.
8f#	no	.	.	.	.	.	.	.	.
8f#	dis-	.	.	.	.	.	.	.	.
8f#	-trac-	.	.	.	.	.	(F	.	.
8f#	-tions	.	.	.	.	.	f)	.	.
8r	.	.	.	.	.	.	.	.	.
8f#	Can't	.	.	.	.	.	.	.	.
=53	=53	=53	=53	=53	=53	=53	=53	=53	=53
8f#	hear	1r	.	1BM	.	voice	.	100.568	B:maj
8e	no	.	.	.	.	.	.	.	.
16d#	bu-	.	.	.	.	.	.	.	.
16d#	-zzers	.	.	.	.	.	.	.	.
8c#	and	.	.	.	.	.	.	.	.
4B	bells	.	.	.	.	.	G	.	.
8r	.	.	.	.	.	.	.	.	.
8e	Don't	.	.	.	.	.	.	.	.
=54	=54	=54	=54	=54	=54	=54	=54	=54	=54
8e	see	1r	.	1AM	.	voice	.	102.526	A:sus4
8e	no	.	.	.	.	.	.	.	.
8e	lights	.	.	.	.	.	B	.	.
16e	a	.	.	.	.	.	.	.	.
8.e	flash-	.	.	.	.	.	(F	.	.
8e	-in'	.	.	.	.	.	f)	.	.
4r	.	.	.	.	.	.	.	.	.
=55	=55	=55	=55	=55	=55	=55	=55	=55	=55
8e	Plays	1r	.	1AM	.	voice	.	104.483	A:maj
8d	be	.	.	.	.	.	.	.	.
8c#	sense	.	.	.	.	.	.	.	.
16d	of	.	.	.	.	.	.	.	.
16e	smell	.	.	.	.	.	G	.	.
16d	_	.	.	.	.	.	.	.	.
8.e	_	.	.	.	.	.	.	.	.
4r	.	.	.	.	.	.	.	.	.
=56	=56	=56	=56	=56	=56	=56	=56	=56	=56
8d	Al-	1r	.	1GM	newline	voice	.	106.44	G:sus4
8d	-ways	.	.	.	.	.	.	.	.
8d	gets	.	.	.	.	.	.	.	.
16d	the	.	.	.	.	.	.	.	.
[16d	re-	.	.	.	.	.	.	.	.
8d]	_	.	.	.	.	.	.	.	.
8d	-play	.	.	.	.	.	.	.	.
4r	.	.	.	.	.	.	.	.	.
=57	=57	=57	=57	=57	=57	=57	=57	=57	=57
16d	Ne-	1r	.	1GM	.	voice	.	108.424	G:maj
8c	-ver	.	.	.	.	.	.	.	.
8.B	_	.	.	.	.	.	.	.	.
8c	seen	.	.	.	.	.	.	.	.
16d	fall	.	.	.	.	.	A	.	.
16c	_	.	.	.	.	.	.	.	.
8d	_	.	.	.	.	.	.	.	.
8r	.	.	.	.	.	.	.	.	.
8d	That	.	.	.	.	.	.	.	.
=58	=58	=58	=58	=58	=58	=58	=58	=58	=58
8.c#	deaf	1r	.	1F#m	.	voice	.	110.407	F#:sus4
8c#	dumb	.	.	.	.	.	D	.	.
16B	and	.	.	.	.	.	.	.	.
8c#	blind	.	.	.	.	.	(B	.	.
8A	_	.	.	.	.	.	.	.	.
8A#	kid	.	.	.	.	.	b)	.	.
4r	.	.	.	.	.	.	.	.	.
=59	=59	=59	=59	=59	=59	=59	=59	=59	=59
4d	Sure	4b	Sure	1F#m	.	voice	.	112.391	F#:sus4
8.B	plays	8.a	plays	.	.	.	.	.	.
16B	a	16a	a	.	.	.	.	.	.
4A	mean	4f#	mean	.	.	.	.	.	.
4E	pin-	4A	pin-	.	.	.	.	.	.
=60	=60	=60	=60	=60	=60	=60	=60	=60	=60
2F#	-ball	2B	-ball	2BM	newline	guitar	A	114.374	B:maj
2r	.	2r	.	4AM	.	guitar	.	115.35	A:maj
.	.	.	.	4DM	.	guitar	.	115.837	D:maj
=61	=61	=61	=61	=61	=61	=61	=61	=61	=61
1r	.	1r	.	1EM	.	guitar	.	116.325	E:maj
=62	=62	=62	=62	=62	=62	=62	=62	=62	=62
1r	.	1r	.	2BM	.	guitar	.	118.276	B:maj
.	.	.	.	4AM	.	guitar	.	119.252	A:maj
.	.	.	.	4DM	.	guitar	.	119.739	D:maj
=63	=63	=63	=63	=63	=63	=63	=63	=63	=63
2..r	.	1r	.	1EM	.	guitar	.	120.227	E:maj
8G#	I	.	.	.	.	.	.	.	.
=64	=64	=64	=64	=64	=64	=64	=64	=64	=64
*>Letter>C	*>Letter>C	*>Letter>C	*>Letter>C	*>Letter>C	*>Letter>C	*>Letter>C	*>Letter>C	*>Letter>C	*>Letter>C
*>Label>Chorus	*>Label>Chorus	*>Label>Chorus	*>Label>Chorus	*>Label>Chorus	*>Label>Chorus	*>Label>Chorus	*>Label>Chorus	*>Label>Chorus	*>Label>Chorus
4B	thought	4e 4g#	thought	4EM	newline	voice	.	122.178	E:maj
4c#	I	4e 4g#	I	4F#M	.	voice	.	122.676	F#:maj
4d#	was	4d# 4f#	was	2BM	.	voice	.	123.173	B:maj
8r	.	4r	.	.	.	.	.	.	.
8G#	the	.	.	.	.	.	.	.	.
=65	=65	=65	=65	=65	=65	=65	=65	=65	=65
8B	Ba-	8e 8g#	Ba-	4EM	.	voice	.	124.168	E:maj
8B	-lly	8e 8g#	-lly	.	.	.	.	.	.
8c#	ta-	8e 8g#	ta-	4F#M	.	voice	.	124.666	F#:maj
8c#	-ble	8e 8g#	-ble	.	.	.	.	.	.
4d#	king	4d# 4f#	king	2BM	.	voice	.	125.164	B:maj
8r	.	4r	.	.	.	.	.	.	.
8G#	But	.	.	.	.	.	.	.	.
=66	=66	=66	=66	=66	=66	=66	=66	=66	=66
4B	I	4e 4g#	I	4EM	.	voice	.	126.159	E:maj
4c#	just	4e 4g#	just	4F#M	.	voice	.	126.656	F#:maj
8d#	hand-	8d# 8f#	hand-	2BM	.	voice	.	127.154	B:maj
8d#	-ed	8d# 8f#	-ed	.	.	.	.	.	.
4B	my	4f#	my	.	.	.	.	.	.
=67	=67	=67	=67	=67	=67	=67	=67	=67	=67
*D:	*	*D:	*	*D:	*	*	*	*	*D:
4B	pin-	4d 4g	pin-	1GM	.	voice	.	128.149	G:maj
4B	-ball	4d 4g	-ball	.	.	.	.	.	.
4B	crown	4d 4g	crown	.	.	.	.	.	.
4B	to	4d 4g	to	.	.	.	.	.	.
=68	=68	=68	=68	=68	=68	=68	=68	=68	=68
8.A	him	8.d 8.f#	him	1DM	.	voice	.	130.139	D:maj
16G	_	16B 16e	_	.	.	.	.	.	.
4F#	_	4A 4d	_	.	.	.	.	.	.
2r	.	2r	.	.	.	.	.	.	.
=69	=69	=69	=69	=69	=69	=69	=69	=69	=69
1r	.	1r	.	1DM	.	voice	.	132.13	D:maj
=70	=70	=70	=70	=70	=70	=70	=70	=70	=70
*>Letter>A	*>Letter>A	*>Letter>A	*>Letter>A	*>Letter>A	*>Letter>A	*>Letter>A	*>Letter>A	*>Letter>A	*>Letter>A
*>Label>Preverse	*>Label>Preverse	*>Label>Preverse	*>Label>Preverse	*>Label>Preverse	*>Label>Preverse	*>Label>Preverse	*>Label>Preverse	*>Label>Preverse	*>Label>Preverse
1r	.	1r	.	1DM	newline	guitar	.	134.12	D:sus4(b7)
=71	=71	=71	=71	=71	=71	=71	=71	=71	=71
1r	.	1r	.	1DMm	.	guitar	.	135.973	D:7
=72	=72	=72	=72	=72	=72	=72	=72	=72	=72
1r	.	1r	.	1DM	.	guitar	.	137.826	D:sus4(b7)
=73	=73	=73	=73	=73	=73	=73	=73	=73	=73
1r	.	1r	.	1DMm	.	guitar	.	139.679	D:7
=74	=74	=74	=74	=74	=74	=74	=74	=74	=74
1r	.	1r	.	1DM	newline	guitar	.	141.532	D:sus4(b7)
=75	=75	=75	=75	=75	=75	=75	=75	=75	=75
1r	.	1r	.	1DMm	.	guitar	.	143.416	D:7
=76	=76	=76	=76	=76	=76	=76	=76	=76	=76
1r	.	1r	.	1DM	.	guitar	.	145.299	D:sus4(b7)
=77	=77	=77	=77	=77	=77	=77	=77	=77	=77
2..r	.	1r	.	1DMm	.	guitar	.	147.183	D:7
16d	Ev-	.	.	.	.	.	.	.	.
16d	-en	.	.	.	.	.	.	.	.
=78	=78	=78	=78	=78	=78	=78	=78	=78	=78
*>Letter>B	*>Letter>B	*>Letter>B	*>Letter>B	*>Letter>B	*>Letter>B	*>Letter>B	*>Letter>B	*>Letter>B	*>Letter>B
*>Label>Verse	*>Label>Verse	*>Label>Verse	*>Label>Verse	*>Label>Verse	*>Label>Verse	*>Label>Verse	*>Label>Verse	*>Label>Verse	*>Label>Verse
8a	on	1r	.	1DM	newline	voice	.	149.067	D:sus4(b7)
8a	my	.	.	.	.	.	.	.	.
8a	favor-	.	.	.	.	.	.	.	.
8a	-ite	.	.	.	.	.	.	.	.
8a	ta-	.	.	.	.	.	(.	.	.
8a	-ble	.	.	.	.	.	b)	.	.
4r	.	.	.	.	.	.	.	.	.
=79	=79	=79	=79	=79	=79	=79	=79	=79	=79
8a	He	1r	.	1DMm	.	voice	.	151.002	D:7
8g	can	.	.	.	.	.	.	.	.
8f#	beat	.	.	.	.	.	.	.	.
8e	my	.	.	.	.	.	.	.	.
4d	best	.	.	.	.	.	H	.	.
8r	.	.	.	.	.	.	.	.	.
8d	Di-	.	.	.	.	.	.	.	.
=80	=80	=80	=80	=80	=80	=80	=80	=80	=80
8g	-scip-	1r	.	1CM	.	voice	(B	152.936	C:sus4(b7)
8g	-les	.	.	.	.	.	b)	.	.
16g	lead	.	.	.	.	.	.	.	.
8g	him	.	.	.	.	.	.	.	.
8.g	in	.	.	.	.	.	.	.	.
8r	.	.	.	.	.	.	.	.	.
8r	.	.	.	.	.	.	.	.	.
8g	and	.	.	.	.	.	.	.	.
=81	=81	=81	=81	=81	=81	=81	=81	=81	=81
8g	he	1r	.	1CMm	.	voice	.	154.871	C:7
8f	just	.	.	.	.	.	.	.	.
8e	does	.	.	.	.	.	.	.	.
16f	the	.	.	.	.	.	.	.	.
16g	rest	.	.	.	.	.	H	.	.
16f	_	.	.	.	.	.	.	.	.
8.g	_	.	.	.	.	.	.	.	.
16r	.	.	.	.	.	.	.	.	.
16B-	He's	.	.	.	.	.	.	.	.
8B-	got	.	.	.	.	.	.	.	.
=82	=82	=82	=82	=82	=82	=82	=82	=82	=82
8f	cra-	1r	.	1B-M	newline	voice	.	156.806	B-:sus4(b7)
8f	-zy	.	.	.	.	.	.	.	.
16f	fli-	.	.	.	.	.	.	.	.
8f	-pper	.	.	.	.	.	.	.	.
8f	fing-	.	.	.	.	.	.	.	.
8.f	-ers	.	.	.	.	.	.	.	.
4r	.	.	.	.	.	.	.	.	.
=83	=83	=83	=83	=83	=83	=83	=83	=83	=83
16f	Ne-	1r	.	1B-Mm	.	voice	.	158.759	B-:7
8e-	-ver	.	.	.	.	.	.	.	.
8d	seen	.	.	.	.	.	.	.	.
8.e-	him	.	.	.	.	.	.	.	.
16f	fall	.	.	.	.	.	A	.	.
16e-	_	.	.	.	.	.	.	.	.
8f	_	.	.	.	.	.	.	.	.
8r	.	.	.	.	.	.	.	.	.
8e	That	.	.	.	.	.	.	.	.
=84	=84	=84	=84	=84	=84	=84	=84	=84	=84
8.e	deaf	1r	.	1AM	.	voice	.	160.713	A:sus4(b7)
8e	dumb	.	.	.	.	.	D	.	.
16d	and	.	.	.	.	.	.	.	.
8e	blind	.	.	.	.	.	(B	.	.
8c	_	.	.	.	.	.	.	.	.
8c#	kid	.	.	.	.	.	b)	.	.
4r	.	.	.	.	.	.	.	.	.
=85	=85	=85	=85	=85	=85	=85	=85	=85	=85
4f	Sure	4dd	Sure	1AMm	.	voice	.	162.666	A:7
8.d	plays	8.cc	plays	.	.	.	.	.	.
16d	a	16cc	a	.	.	.	.	.	.
4c	mean	4a	mean	.	.	.	.	.	.
4G	pin-	4c	pin-	.	.	.	.	.	.
=86	=86	=86	=86	=86	=86	=86	=86	=86	=86
2A	-ball	2d	-ball	2DM	newline	guitar	A	164.62	D:maj
2r	.	2r	.	4CM	.	guitar	.	165.642	C:maj
.	.	.	.	4FM	.	guitar	.	166.153	F:maj
=87	=87	=87	=87	=87	=87	=87	=87	=87	=87
*>Letter>A	*>Letter>A	*>Letter>A	*>Letter>A	*>Letter>A	*>Letter>A	*>Letter>A	*>Letter>A	*>Letter>A	*>Letter>A
*>Label>Fadeout	*>Label>Fadeout	*>Label>Fadeout	*>Label>Fadeout	*>Label>Fadeout	*>Label>Fadeout	*>Label>Fadeout	*>Label>Fadeout	*>Label>Fadeout	*>Label>Fadeout
1r	.	1r	.	1B-M	newline	guitar	.	166.665	B-:sus4(b7)
=88	=88	=88	=88	=88	=88	=88	=88	=88	=88
1r	.	1r	.	1B-Mm	.	guitar	.	168.579	B-:7
=89	=89	=89	=89	=89	=89	=89	=89	=89	=89
1r	.	1r	.	1B-M	.	guitar	.	170.493	B-:sus4(b7)
=90	=90	=90	=90	=90	=90	=90	=90	=90	=90
1r	.	1r	.	1B-Mm	.	guitar	.	172.407	B-:7
=91	=91	=91	=91	=91	=91	=91	=91	=91	=91
1r	.	1r	.	1B-Mm	newline	guitar	.	174.321	B-:7
=92	=92	=92	=92	=92	=92	=92	=92	=92	=92
1r	.	1r	.	1B-Mm	.	guitar	.	176.212	B-:7
r;	.	r;	.	1r;	.	r	.	179.049	N.C.
r;	.	r;	.	1r;	.	r	.	180.611	N.C.
*-	*-	*-	*-	*-	*-	*-	*-	*-	*-
!!!BillboardChartDate: 1969/04/26
!!!BillboardPeak: 19
!!!BillboardWeeksOnChart: 11
!!!COC: The Who
!!!ENC: Nathaniel Condit-Schultz
!!!EST: Awating manual error checking and editing.
!!!OTL: Pinball Wizard
!!!RDF**chordsym: original McGill chord annotation + (implied pitch class set, with bass pitch in first position)
!!!RDF**harmony: **recip + pitch class of root + harmonic quality
!!!RDF**leadinstrument: original McGill primary instrumentation annotation
!!!RDF**phrase: newline = linebreak in original McGill transcription
!!!RDF**timestamp: McGill audio timestamp in seconds
!!!RDT: 2017/01/12/
!!!SampleActualRank: 46
!!!SampleID#: 0421
!!!SampleTargetRank: 48
